src/icons/outline/phone-missed-call.svg

<svg width="24" height="24" viewBox="0 0 24 24" fill="none" xmlns="http://www.w3.org/2000/svg">
<path d="M16 8L18 6M18 6L20 4M18 6L16 4M18 6L20 8M5 3C3.89543 3 3 3.89543 3 5V6C3 14.2843 9.71573 21 18 21H19C20.1046 21 21 20.1046 21 19V15.7208C21 15.2903 20.7246 14.9082 20.3162 14.7721L15.8228 13.2743C15.3507 13.1169 14.8347 13.3306 14.6121 13.7757L13.4835 16.033C11.0388 14.9308 9.06925 12.9612 7.96701 10.5165L10.2243 9.38787C10.6694 9.16531 10.8831 8.64932 10.7257 8.17721L9.22792 3.68377C9.09181 3.27543 8.70967 3 8.27924 3H5Z" stroke="#374151" stroke-width="2" stroke-linecap="round" stroke-linejoin="round"/>
</svg>

<svg xmlns="http://www.w3.org/2000/svg" fill="none" viewBox="0 0 24 24" stroke="currentColor">
  <path stroke-linecap="round" stroke-linejoin="round" stroke-width="2" d="M16 8l2-2m0 0l2-2m-2 2l-2-2m2 2l2 2M5 3a2 2 0 00-2 2v1c0 8.284 6.716 15 15 15h1a2 2 0 002-2v-3.28a1 1 0 00-.684-.948l-4.493-1.498a1 1 0 00-1.21.502l-1.13 2.257a11.042 11.042 0 01-5.516-5.517l2.257-1.128a1 1 0 00.502-1.21L9.228 3.683A1 1 0 008.279 3H5z"/>
</svg>
